icons/editor-crop-1-filled.svg

<svg width="24" height="24" viewBox="0 0 24 24" fill="none" xmlns="http://www.w3.org/2000/svg">
<g id="crop-01">
<path id="Icon" d="M2.40039 6.60861H6.87162M6.87162 2.40039V15.5511C6.87162 16.1321 7.34264 16.6031 7.92368 16.6031H21.6004M17.6552 21.8634V16.8661M17.3922 13.447V7.66066C17.3922 7.07963 16.9211 6.60861 16.3401 6.60861H10.8168" stroke="black" stroke-width="2" stroke-linecap="round" stroke-linejoin="round"/>
</g>
</svg>

<svg xmlns="http://www.w3.org/2000/svg" width="24" height="24" fill="none" viewBox="0 0 24 24"><path stroke="currentColor" stroke-linecap="round" stroke-linejoin="round" stroke-width="2" d="M2.4 6.609h4.472m0-4.209v13.151c0 .581.47 1.052 1.052 1.052H21.6m-3.945 5.26v-4.997m-.263-3.419V7.661c0-.581-.47-1.052-1.052-1.052h-5.523"/></svg>
